svgs/sharp-solid/puzzle.svg

<svg xmlns="http://www.w3.org/2000/svg" viewBox="0 0 512 512"><!--! Font Awesome Pro 6.6.0 by @fontawesome - https://fontawesome.com License - https://fontawesome.com/license (Commercial License) Copyright 2024 Fonticons, Inc. --><path d="M304 0L512 0l0 208-80 0 0 16c0 17.7-14.3 32-32 32s-32-14.3-32-32l0-16-64 0 0-64 32 0c17.7 0 32-14.3 32-32s-14.3-32-32-32l-32 0 0-80zM0 272L0 64l208 0 0 64 16 0c17.7 0 32 14.3 32 32s-14.3 32-32 32l-16 0 0 80-64 0 0-32c0-17.7-14.3-32-32-32s-32 14.3-32 32l0 32L0 272zM0 512L0 304l208 0 0 64-32 0c-17.7 0-32 14.3-32 32s14.3 32 32 32l32 0 0 80L0 512zM240 304l64 0 0 32c0 17.7 14.3 32 32 32s32-14.3 32-32l0-32 80 0 0 208-208 0 0-208z"/></svg>

<svg xmlns="http://www.w3.org/2000/svg" viewBox="0 0 512 512"><!--! Font Awesome Pro 6.4.0 by @fontawesome - https://fontawesome.com License - https://fontawesome.com/license (Commercial License) Copyright 2023 Fonticons, Inc. --><path d="M304 0H512V208H432v16c0 17.7-14.3 32-32 32s-32-14.3-32-32V208l-64 0V144h32c17.7 0 32-14.3 32-32s-14.3-32-32-32H304V0zM0 272V64H208v64h16c17.7 0 32 14.3 32 32s-14.3 32-32 32H208v80H144V240c0-17.7-14.3-32-32-32s-32 14.3-32 32v32H0zM0 512V304H208v64H176c-17.7 0-32 14.3-32 32s14.3 32 32 32h32v80H0zM240 304h64v32c0 17.7 14.3 32 32 32s32-14.3 32-32V304h80V512H240V304z"/></svg>
